actions/22/texture.svg

<svg xmlns="http://www.w3.org/2000/svg" viewBox="0 0 22 22">
  <defs id="defs3051">
<style type="text/css" id="current-color-scheme">.ColorScheme-Text {color:#fcfcfc;}</style>
  </defs>
 <path 
     style="fill:currentColor;fill-opacity:1;stroke:none" 
     d="M 6,3 C 3,3 3,6 3,6 v 10 c 0,0 0,3 3,3 3,0 7,0 10,0 3,0 3,-3 3,-3 V 6 C 19,6 19,3 16,3 13,3 9,3 6,3 Z m 0,1 c 2,0 8,0 10,0 2,0 2,2 2,2 H 4 C 4,6 4,4 6,4 Z M 4,7 H 18 V 9 H 4 Z m 0,3 h 14 v 2 H 4 Z m 0,3 h 14 v 2 H 4 Z m 0,3 h 14 c 0,0 0,2 -2,2 -2,0 -8,0 -10,0 -2,0 -2,-2 -2,-2 z"
	 class="ColorScheme-Text"
     />
</svg>

<svg xmlns="http://www.w3.org/2000/svg" viewBox="0 0 22 22">
  <defs id="defs3051">
    <style type="text/css" id="current-color-scheme">
      .ColorScheme-Text {
        color:#eff0f1;
      }
      </style>
  </defs>
 <path 
     style="fill:currentColor;fill-opacity:1;stroke:none" 
     d="M 3 3 L 3 4 L 3 6 L 3 7 L 3 9 L 3 10 L 3 12 L 3 13 L 3 15 L 3 16 L 3 18 L 3 19 L 18 19 L 19 19 L 19 18 L 19 16 L 19 15 L 19 13 L 19 12 L 19 10 L 19 9 L 19 7 L 19 6 L 19 4 L 19 3 L 18 3 L 3 3 z M 4 4 L 18 4 L 18 6 L 4 6 L 4 4 z M 4 7 L 18 7 L 18 9 L 4 9 L 4 7 z M 4 10 L 18 10 L 18 12 L 4 12 L 4 10 z M 4 13 L 18 13 L 18 15 L 4 15 L 4 13 z M 4 16 L 18 16 L 18 18 L 4 18 L 4 16 z "
	 class="ColorScheme-Text"
     />
</svg>
